X: 4
T: The Humours Of Westmeath
R: slip jig
M: 9/8
L: 1/8
K: Dmaj
|: d2 d dAG FED | dec dAF G2 E |\
AA/B/c d=cB AFD | =c2 c E[CG]E GFE :|
|: d2 g fdf ecA | d2 g fd/e/f g2 e |\
dg/g/g fdf e2 A |[1 =cA/B/c E[CG]E G2 E :|[2 =c2 c E2 F GG/A/B |]


Tune 428	Setting 22581

